X:1
T:Title
%%score { ( 1 3 ) | 2 }
L:1/8
M:3/4
K:Bb
V:1 treble nm="Grand Piano"
V:3 treble 
V:2 bass 
V:1
 z2 z2[Q:1/4=100] F>F | F3 F G>B |[M:13/16] F/-F/-F-<F z/ z D>D |[M:3/4] E2 z .E .D.C | D4 F>B | %5
 d3 c B>F | G4 E>F | G3 F =EE |[M:4/4] [F,A,F]6 z2 | [DF]2 [DF][DF] [DF][DF] .[DF]2 | %10
 [EG]2 [EG][EG] [EG][DF] .[DF]2 | .[DF]2 [DF]B BAAB | .c2 .B2 A4 | [DF]2 [DB][Ec] [Fd][Ec] [DB]2 | %14
 [EG]2 [EG][FA] [GB][FA] [EG]2 | [DF]2 [DF][DF] [DB][DB][=EB][Ec] |[M:5/4] [Fd]3 [Ec]3 [DB]4 | %17
[M:4/4] F4 B2 z2 | d4 B4 | B4 G2 .G2 | e-[Ge-][Ge][Fd] [Fd]4 | d2- [Fd][EFc] [DFB][DF]B,-[B,Af] | %22
 f2- [Gf][Ge] d-[Gd] [Gc]2 | z2 F2 c2 F2 | B-[GB-][FB-][EB-] [DB]4 | F2- [DF-][DF] B-[DB] [Dc]2 | %26
 d2- [B,Dd][CEc] B-[CEB-] [B,DB]2 | B2- [GB-][GB] z Ee-[Ge] | e-[Ge-][Ge][Fd] [Fd]4 | %29
 d2- [Fd][EFc] [DFB][DF]B,-[B,Af] | f2- [Gf][Ge] d-[Gd] [Gc]2 | z2 F2 c2 F2 | %32
 B-[GB-][FB-][EB-] [DB]4 | G2 ^F2 G2 [FA]2 | [GB]2 [Gc]2 [^Fd]4 | %35
 [Gd]2 .[B=e].[Be] .[Af].[A_e].[Bd].B |[M:6/4] d3 c3 [DB]6 |] %37
V:2
 z6 | z6 |[M:13/16] z/ z/ z/ z/ z/ z/ z/ z [F,B,]>[F,B,] |[M:3/4] [F,C]2 z .[F,C] .[F,B,].[F,A,] | %4
 [B,,B,]4 z2 | z6 | z2 z2 [E,G,]>[E,A,] | [E,B,]3 [D,B,] [C,B,][C,B,] |[M:4/4] F,,6 z2 | %9
 B,,2 B,,B,, B,,B,, .B,,2 | B,,2 B,,B,, B,,B,, .B,,2 | B,,2 B,,[D,D] [F,D][F,C][F,C][F,D] | %12
 .[F,E]2 .[F,D]2 [F,C]4 | B,,2 B,,B,, B,,B,, B,,2 | E,2 E,E, E,E, E,2 | B,,2 B,,B,, G,G,G,G, | %16
[M:5/4] F,3 F,3 B,,4 |[M:4/4] [B,,B,]2 [B,,B,][B,,B,] [B,,B,][B,,B,] [B,,B,]2 | %18
 [B,,B,]2 B,,B,, B,,B,, B,,2 | E,2 [E,E][E,E] [E,B,E][E,B,][E,B,][E,B,] | %20
 [B,,B,][B,,B,][B,,B,][B,,B,] [B,,B,]4 | [B,,B,]2 B,,B,, B,,B,,B,,D, | %22
 [E,B,]2 [E,B,][E,B,] [E,B,][E,B,] [E,B,]2 | [F,B,F]2 [F,B,D][F,B,] [F,A,E][F,A,][F,CE][F,C] | %24
 [B,,B,][B,,B,][B,,A,][B,,G,] [B,,F,]4 | [B,,B,]2 [B,,B,][B,,B,] [B,,B,][B,,B,] [B,,B,]2 | %26
 [B,,B,]2 B,,B,, B,,B,, B,,2 | E,2 [E,E][E,E] [E,B,E][E,B,][E,B,][E,B,] | %28
 [B,,B,][B,,B,][B,,B,][B,,B,] [B,,B,]4 | [B,,B,]2 B,,B,, B,,B,,B,,D, | %30
 [E,B,]2 [E,B,][E,B,] [E,B,][E,B,] [E,B,]2 | [F,B,F]2 [F,B,D][F,B,] [F,A,E][F,A,][F,CE][F,C] | %32
 [B,,B,][B,,B,][B,,A,][B,,G,] [B,,F,]4 | [E,B,E]2 [E,CE]2 [E,B,E]2 [E,B,]2 | %34
 [E,B,]2 [E,G,]2 [D,A,]4 | [G,B,]2 .[G,C].[G,C] .[F,C].[F,C].[F,F].[F,DF] | %36
[M:6/4] [F,B,F]3 [F,A,E]3 [B,,B,]6 |] %37
V:3
 x6 | x6 |[M:13/16] x13/2 |[M:3/4] x6 | x6 | x6 | x6 | x6 |[M:4/4] x8 | x8 | x8 | x8 | x8 | x8 | %14
 x8 | x8 |[M:5/4] x10 |[M:4/4] D2 DD DD [Dc]2 | D2 [B,D][CEc] [DF][CE] [B,D]2 | %19
 [B,G]2 GG z Ee-[Ge] | .G2 z2 z4 | F2 z2 z2 .F2 | G2 z2 .G2 z2 | d2 z D z E z E | .D2 z2 z4 | %25
 D2 z2 .D2 z2 | D2 z2 .[DF]2 z2 | [B,G]2 z2 G2 .G2 | .G2 z2 z4 | F2 z2 z2 .F2 | G2 z2 .G2 z2 | %31
 d2 z D z E z E | .D2 z2 z4 | x8 | x8 | x8 |[M:6/4] x12 |] %37

